X: 1
T: Stures Schottis
C: Trad.
R: shottish
S: http://www.nyckelharpa.org/archive/written-music/american-allspel-list/ 2022/9/26
Z: 2022 John Chambers <jc:trillian.mit.edu>
M: C|
L: 1/8
Q: 1/2=70
K: Gm
D2 |\
G>^F G<A B>A B<c | d>e d<c B2 G2 | D2 ^FA d>c B<A | G>A B<c d3 D |
G>^F G<A B>A B<c | d>e d<c B2 G2 | D2 ^FA d>c B<A | G2 B2 G2 :|
|: A2 |\
B>d d<d B>d d<d | B>d d<d (ed) cB | A>c c<c A>c c<c | A>c c<c (dc) BA |
G>B B<B G>B B<B | G>B B<B (cB) AG | D2 ^FA d>c B<A | G2 B2 G2 :|
